X: 1
T: Ben Hill
M: 4/4
L: 1/8
R: hornpipe
K: Gmaj
(3DEF|GFGA BGBc|dgge dB (3GAB|cedc BGAB|cBAG FDEF|
GFGA BGBc|dgge dB (3GAB|cedc BAGF|A2G2 G2:|
dc|BG (3Bcd gfed|cBcd c2cB|A^GAd fedc|BABc B2D2|
GFGA BGBc|dgge dB (3GAB|cedc BAGF|A2G2 G2:|
